X:11118
T:Monfrina. JMT039
T:Italian Monfrina. JMT039
T:Ducks Dang etc. JMT039
M:6/8
L:1/8
S:J.Moore,Tyneside,1841.(28b)
R:Jig
O:England
A:Northumbria
H:184
Z:C.G.P
K:A
E|ABc cdB|B-AAA2c|Bcd GAB|B-AAA2E|ABc cdB|!BAA Ace|ecA GAB|B-AAA2:|
|:a|agb bge|c-d.ee2a|!agb bge|cdee2a|aga aga|fdf agf|efe dcB|B-AAA2:|]
